lib/svgs/sort-by-unread.svg

<?xml version="1.0" encoding="UTF-8"?>
<svg width="17px" height="16px" viewBox="0 0 17 16" version="1.1" xmlns="http://www.w3.org/2000/svg" xmlns:xlink="http://www.w3.org/1999/xlink">
    <!-- Generator: sketchtool 51.3 (57544) - http://www.bohemiancoding.com/sketch -->
    <title>app/sort-by-unread</title>
    <desc>Created with sketchtool.</desc>
    <defs></defs>
    <g id="Icons" stroke="none" stroke-width="1" fill="none" fill-rule="evenodd">
        <g id="Web" transform="translate(-387.000000, -552.000000)" fill="#000000" fill-rule="nonzero">
            <g id="app/sort-by-unread" transform="translate(387.000000, 552.000000)">
                <path d="M13.6075879,9.08495234 C13.9256693,9.40637943 14.2095772,9.75263088 14.4540827,10.0985392 C14.59919,10.3038261 14.6970609,10.4601524 14.7435437,10.5423531 L14.7435437,9.94073916 C14.6970609,10.0229398 14.59919,10.1792662 14.4540827,10.3845531 C14.2095772,10.7304614 13.9256693,11.0767128 13.6075879,11.3981399 C12.7291407,12.285827 11.7733999,12.8058697 10.7821668,12.8058697 C9.79093366,12.8058697 8.83519286,12.285827 7.95674563,11.3981399 C7.63866423,11.0767128 7.3547564,10.7304614 7.11025086,10.3845531 C6.96514361,10.1792662 6.86727271,10.0229398 6.82078983,9.94073916 L6.82078983,10.5423531 C6.86727271,10.4601524 6.96514361,10.3038261 7.11025086,10.0985392 C7.3547564,9.75263088 7.63866423,9.40637943 7.95674563,9.08495234 C8.83519286,8.1972653 9.79093366,7.67722259 10.7821668,7.67722259 C11.7733999,7.67722259 12.7291407,8.1972653 13.6075879,9.08495234 Z M7.1082387,8.22752053 C6.73996641,8.59966644 6.41456024,8.9965289 6.1337951,9.39373455 C5.96373995,9.63431595 5.84449896,9.8247761 5.7789241,9.94073916 C5.67352125,10.1271343 5.67352125,10.355958 5.7789241,10.5423531 C5.84449896,10.6583162 5.96373995,10.8487763 6.1337951,11.0893577 C6.41456024,11.4865634 6.73996641,11.8834258 7.1082387,12.2555717 C8.19080201,13.3495218 9.42018725,14.0184614 10.7821668,14.0184614 C12.1441463,14.0184614 13.3735316,13.3495218 14.4560949,12.2555717 C14.8243672,11.8834258 15.1497733,11.4865634 15.4305385,11.0893577 C15.6005936,10.8487763 15.7198346,10.6583162 15.7854095,10.5423531 C15.8908123,10.355958 15.8908123,10.1271343 15.7854095,9.94073916 C15.7198346,9.8247761 15.6005936,9.63431595 15.4305385,9.39373455 C15.1497733,8.9965289 14.8243672,8.59966644 14.4560949,8.22752053 C13.3735316,7.13357046 12.1441463,6.4646309 10.7821668,6.4646309 C9.42018725,6.4646309 8.19080201,7.13357046 7.1082387,8.22752053 Z M11.6273599,9.38746387 C12.0941459,9.85915965 12.0941459,10.6239335 11.6273599,11.0956293 C11.160574,11.5673251 10.4037605,11.5673251 9.93697453,11.0956293 C9.47018737,10.6239335 9.47018737,9.85915965 9.93697453,9.38746387 C10.4037605,8.91576688 11.160574,8.91576688 11.6273599,9.38746387 Z M0.617658285,11.713233 L4.38227005,11.713233 C4.72402621,11.713233 4.99990167,11.9850556 4.99990167,12.3195288 C4.99990167,12.654002 4.72402621,12.9248142 4.38227005,12.9248142 L0.617658285,12.9248142 C0.276931509,12.9248142 2.66666666e-05,12.654002 2.66666666e-05,12.3195288 C2.66666666e-05,11.9850556 0.276931509,11.713233 0.617658285,11.713233 Z M4.44643526,8.10637902 L0.554293054,8.106379 C0.247820314,8.106379 0.000426656667,7.83455636 0.000426656667,7.50008315 C0.000426656667,7.16459945 0.247820314,6.89378731 0.554293054,6.89378731 L4.44643526,6.89378733 C4.75198489,6.89378733 5.00030166,7.16459948 5.00030166,7.50008318 C5.00030166,7.83455639 4.75198489,8.10637902 4.44643526,8.10637902 Z M0.600411657,3.23105306 C0.268419957,3.23105306 0.000426656667,2.95923042 0.000426656667,2.62475721 C0.000426656667,2.28927351 0.268419957,2.01846137 0.600411657,2.01846137 L15.4000417,2.01846137 C15.7310334,2.01846137 16.0000267,2.28927351 16.0000267,2.62475721 C16.0000267,2.95923042 15.7310334,3.23105306 15.4000417,3.23105306 L0.600411657,3.23105306 Z" id="Combined-Shape"></path>
            </g>
        </g>
    </g>
</svg>

<svg xmlns="http://www.w3.org/2000/svg" viewBox="0 0 17 16">
    <path d="M13.608 9.085a8.067 8.067 0 0 1 1.136 1.457v-.601a8.067 8.067 0 0 1-1.136 1.457c-.879.888-1.835 1.408-2.826 1.408-.991 0-1.947-.52-2.825-1.408A8.067 8.067 0 0 1 6.82 9.941v.601a8.067 8.067 0 0 1 1.136-1.457c.878-.888 1.834-1.408 2.825-1.408.991 0 1.947.52 2.826 1.408zm-6.5-.857a9.264 9.264 0 0 0-1.33 1.713.612.612 0 0 0 0 .601 9.264 9.264 0 0 0 1.33 1.713c1.083 1.095 2.312 1.763 3.674 1.763s2.592-.668 3.674-1.762a9.264 9.264 0 0 0 1.33-1.714.612.612 0 0 0 0-.601 9.264 9.264 0 0 0-1.33-1.713c-1.082-1.094-2.312-1.763-3.674-1.763s-2.591.669-3.674 1.763zm4.52 1.16a1.217 1.217 0 0 1 0 1.708 1.187 1.187 0 0 1-1.691 0 1.217 1.217 0 0 1 0-1.709 1.187 1.187 0 0 1 1.69 0zM.617 11.712h3.764c.342 0 .618.272.618.607a.611.611 0 0 1-.618.605H.618A.612.612 0 0 1 0 12.32c0-.335.277-.607.618-.607zm3.828-3.607H.554C.248 8.106 0 7.835 0 7.5c0-.335.248-.606.554-.606h3.892c.306 0 .554.27.554.606 0 .335-.248.606-.554.606zM.6 3.231a.603.603 0 0 1-.6-.606c0-.336.268-.607.6-.607h14.8c.331 0 .6.271.6.607a.604.604 0 0 1-.6.606H.6z"/>
</svg>
